collections/iconoir/scan-barcode.svg

<svg stroke-width="1.5" fill="none" xmlns="http://www.w3.org/2000/svg" viewBox="0 0 24 24" width="20" height="20"><path d="M10 12V6h1m-1 6h1V6m-1 12v-3h1m0 0v3h-1M7 6v6m0 3v3m7-12v6m0 3v3m3-12v6m0 3v3M6 3H3v3m-1 6h20m-4-9h3v3M6 21H3v-3m15 3h3v-3" stroke="currentColor" stroke-linecap="round" stroke-linejoin="round"/></svg>

<svg stroke-width="1.5" fill="none" xmlns="http://www.w3.org/2000/svg" viewBox="0 0 24 24" width="20" height="20"><path d="M10 12V6h1M10 12h1V6M10 18v-3h1M11 15v3h-1M7 6v6M7 15v3M14 6v6M14 15v3M17 6v6M17 15v3M6 3H3v3M2 12h20M18 3h3v3M6 21H3v-3M18 21h3v-3" stroke="currentColor" stroke-linecap="round" stroke-linejoin="round"/></svg>
